X:0030
T:Gentle Ann.
M:2/4
L:1/8
Q:1/4=104
I: :: ::
Z:Jack Campin * www.campin.me.uk * 2009
K:D
D>EDd   |AFAd|D>EDd      |AF   (G/F/)(E/D/)|
D>EDd   |AFAd|ed e/g/f/e/|dd    d2        :|
fd de/f/|gfed|cAeA       |cAeg             |
fd de/f/|gfed|cd e/g/f/e/|d/d/d d2        :|

